icons/lines/star.svg

<svg xmlns="http://www.w3.org/2000/svg" width="24" height="24" viewBox="0 0 24 24" fill="none" stroke="currentColor" stroke-width="2" stroke-linecap="round" stroke-linejoin="round" >
  <path d="M15.39 5.21L16.7999 8.02999C16.9899 8.41999 17.4999 8.78999 17.9299 8.86999L20.48 9.28999C22.11 9.55999 22.49 10.74 21.32 11.92L19.3299 13.91C18.9999 14.24 18.81 14.89 18.92 15.36L19.4899 17.82C19.9399 19.76 18.9 20.52 17.19 19.5L14.7999 18.08C14.3699 17.82 13.65 17.82 13.22 18.08L10.8299 19.5C9.11994 20.51 8.07995 19.76 8.52995 17.82L9.09996 15.36C9.20996 14.9 9.01995 14.25 8.68995 13.91L6.69996 11.92C5.52996 10.75 5.90996 9.56999 7.53996 9.28999L10.0899 8.86999C10.5199 8.79999 11.03 8.41999 11.22 8.02999L12.63 5.21C13.38 3.68 14.62 3.68 15.39 5.21Z"/>
  <path d="M8 5H2"/>
  <path d="M5 19H2"/>
  <path d="M3 12H2"/>
  </svg>

<svg xmlns="http://www.w3.org/2000/svg" width="24" height="24" viewBox="0 0 24 24" fill="none" stroke="currentColor" stroke-width="2" stroke-linecap="round" stroke-linejoin="round">
  <path d="M16.8 8.03c.19.39.7.76 1.13.84l2.55.42c1.63.27 2.01 1.45.84 2.63l-1.99 1.99c-.33.33-.52.98-.41 1.45l.57 2.46c.45 1.94-.59 2.7-2.3 1.68l-2.39-1.42a1.56 1.56 0 0 0-1.58 0l-2.39 1.42c-1.71 1.01-2.75.26-2.3-1.68l.57-2.46c.11-.46-.08-1.11-.41-1.45L6.7 11.92c-1.17-1.17-.79-2.35.84-2.63l2.55-.42c.43-.07.94-.45 1.13-.84l1.41-2.82c.75-1.53 1.99-1.53 2.76 0z" />
  <path d="M3 12H2" />
  <path d="M5 19H2" />
  <path d="M8 5H2" />
</svg>
